!!!COM: Music21
!!!OTL: Muiñeira de Quiroga
!!!OMV: pezas_muineiras_muineira-de-quiroga_muineira-de-quiroga-partitura.musicxml
**kern
*part1
*staff1
*I"Bagpipes
*I'Bag
*clefG^2
*k[b-]
*F:
*M6/8
=1
!LO:TX:a:t=Presto
*MM180
!LO:TX:a:t=[quarter]=180
4.r
8aaL
8ccc
8aaJ
=||
8ffL
8gg
8aaJ
8bb-L
8gg
8bb-J
=
4aa
8ff
8aaL
8ccc
8aaJ
=
8ffL
8gg
8aaJ
8bb-L
8gg
8eeJ
=
4.ff
8aaL
8ccc
8aaJ
=
8ffL
8gg
8aaJ
8bb-L
8gg
8bb-J
=
8aaL
8gg
8aaJ
8bb-L
8gg
8bb-J
!!linebreak:original
=
8aaL
8ff
8aaJ
8ggL
8ee
8ggJ
=
4.ff
8aaL
8ccc
8aaJ
=||
8ffL
8gg
8aaJ
8bb-L
8gg
8bb-J
=
4aa
8ff
8aaL
8ccc
8aaJ
=
8ffL
8gg
8aaJ
8bb-L
8gg
8eeJ
=
4.ff
8aaL
8ccc
8aaJ
=
8ffL
8gg
8aaJ
8bb-L
8gg
8bb-J
!!linebreak:original
=
8aaL
8gg
8aaJ
8bb-L
8gg
8bb-J
!!linebreak:original
=
8aaL
8ff
8aaJ
8ggL
8ee
8ggJ
=
*k[b-e-a-]
*E-:
2ff
8ffL
8ggJ
=||
8aa-L
8gg
8ffJ
8ffL
8ee-
8ffJ
=
8ggL
8ee-
[8ccJ
8ccL]
8ee-
8ffJ
=
8ggL
8ee-
[8ccJ
8ccL]
.
8ff
.
8ggJ
.
=
8aa-L
8gg
[8ffJ
8ffL]
8ff
8ggJ
!!linebreak:original
=
8aa-L
8gg
[8ffJ
8ffL]
8ee-
8ffJ
=
8ggL
8ee-
8ccJ
8ee-L
8cc
8ddJ
=
8ggL
8cc
8ee-J
8ggL
8aa-
8ggJ
=
2ff
8ffL
8ggJ
=||
8aa-L
8gg
8ffJ
8ffL
8ee-
8ffJ
=
8ggL
8ee-
[8ccJ
8ccL]
8ee-
8ffJ
=
8ggL
8ee-
[8ccJ
8ccL]
.
8ff
.
8ggJ
.
!!linebreak:original
=
8aa-L
8gg
[8ffJ
8ffL]
8ff
8ggJ
!!pagebreak:original
=
8aa-L
8gg
[8ffJ
8ffL]
8ee-
8ffJ
=
8ggL
8ee-
8ccJ
8ee-L
8cc
8ddJ
=
8ggL
8cc
8ee-J
8ggL
8aa-
8ggJ
=
4.ff
8.ccL
16ccK
8ccJ
=||
8ccL
8b-
8ccJ
8aa-L
8gg
8ffJ
=
4gg
8ee-
8.ccL
16ccK
8ccJ
!!linebreak:original
=
8.ccL
16b-K
8ccJ
8ggL
8ff
8ggJ
=
4.aa-
8.ccL
16ccK
8ccJ
=
8ccL
8b-
8ccJ
8aa-L
8gg
8ffJ
=
4gg
8ee-
8ccL
8ee-
8ccJ
=
8ggL
8cc
8ee-J
8ggL
8aa-
8ggJ
=
4.ff
8.ccL
16ccK
8ccJ
!!linebreak:original
=||
8ccL
8b-
8ccJ
8aa-L
8gg
8ffJ
=
4gg
8ee-
8.ccL
16ccK
8ccJ
!!linebreak:original
=
8.ccL
16b-K
8ccJ
8ggL
8ff
8ggJ
=
4.aa-
8.ccL
16ccK
8ccJ
=
8ccL
8b-
8ccJ
8aa-L
8gg
8ffJ
=
4gg
8ee-
8ccL
8ee-
8ccJ
=
8ggL
8cc
8ee-J
8ggL
8aa-
8ggJ
=
4.ff
8aa-L
8ccc
8aa-J
==
*-
!!!system-decoration: s1,s2
